X:1
T:Substitution, 86.86.86
T:Ira David Sankey (1840-1908)
T:Substitution, 86.86.86
T:Public Domain
C:Ira David Sankey (1840-1908)
Z:Public Domain
%%score ( 1 2 ) ( 3 4 )
L:1/8
M:4/4
K:Eb
V:1 treble 
V:2 treble 
V:3 bass 
V:4 bass 
V:1
 (EG) | [GB]3 [GB] [GB]3 [EG] | [EG]2 [DF]2 E3 [EB] | [Ec]2 [EB]2 [DA]2 [DF]2 | [EG]6 (EG) | %5
 [GB]3 [GB] [GB]3 [EG] | [EG]2 [DF]2 E3 [EG] | [DF]2 [DB]2 [Ec]2 [Fd]2 | [DB]6 [DA]2 | %9
 [EG]3 [EG] [DA]3 [DA] | [EB]2 [Ee]2 [Ec]3 [Ec] | [EB]3 E [EG]2 [DF]2 | E6 |] %13
V:2
 E2 | x8 | x4 E3 x | x8 | x6 E2 | x8 | x4 E3 x | x8 | x8 | x8 | x8 | x3 E x4 | E6 |] %13
V:3
 G,B, | [E,E]3 [E,E] [E,E]3 [E,B,] | [B,,B,]2 [B,,A,]2 [E,G,]3 [G,B,] | %3
 A,2 [G,B,]2 [F,B,]2 [B,,B,]2 | [E,B,]6 (G,B,) | [E,E]3 [E,E] [E,E]3 [E,B,] | %6
 [B,,B,]2 [B,,A,]2 [E,G,]3 [E,B,] | [F,B,]2 [F,B,]2 [F,=A,]2 [F,A,]2 | [B,,B,]6 [B,,B,]2 | %9
 [E,B,]3 [E,B,] [F,B,]3 [F,B,] | [G,B,]2 [G,B,]2 A,3 [A,,A,] | [B,,G,]3 [B,,G,] [B,,B,]2 [B,,A,]2 | %12
 [E,G,]6 |] %13
V:4
 E,2 | x8 | x8 | A,2 x6 | x6 E,2 | x8 | x8 | x8 | x8 | x8 | x4 A,3 x | x8 | x6 |] %13

